Newaita-dark/.LP/128/weather-storm.svg

<svg xmlns="http://www.w3.org/2000/svg" xmlns:xlink="http://www.w3.org/1999/xlink" width="128px" height="128px" viewBox="0 0 128 128" version="1.1">
<defs>
<linearGradient id="linear0" gradientUnits="userSpaceOnUse" x1="232.833328" y1="222.916672" x2="232.833328" y2="48.291668" >
<stop offset="0" style="stop-color:rgb(100%,79.215686%,15.686275%);stop-opacity:1;"/>
<stop offset="1" style="stop-color:rgb(100%,83.529412%,30.980392%);stop-opacity:1;"/>
</linearGradient>
<linearGradient id="linear1" gradientUnits="userSpaceOnUse" x1="960" y1="1695.118164" x2="960" y2="815.118103" gradientTransform="matrix(0.0661523,0,0,0.0661523,0,-41.733677)">
<stop offset="0" style="stop-color:rgb(47.058824%,56.470588%,61.176471%);stop-opacity:1;"/>
<stop offset="1" style="stop-color:rgb(56.470588%,64.313725%,68.235294%);stop-opacity:1;"/>
</linearGradient>
<radialGradient id="radial0" gradientUnits="userSpaceOnUse" cx="450.908936" cy="189.579361" fx="450.908936" fy="189.579361" r="21.166656" gradientTransform="matrix(0.000000696682,-0.31253,-0.562554,-0.000000406155,163.539124,251.735245)">
<stop offset="0" style="stop-color:rgb(0%,0%,0%);stop-opacity:0.313725;"/>
<stop offset="0.222222" style="stop-color:rgb(0%,0%,0%);stop-opacity:0.27451;"/>
<stop offset="1" style="stop-color:rgb(0%,0%,0%);stop-opacity:0;"/>
</radialGradient>
<radialGradient id="radial1" gradientUnits="userSpaceOnUse" cx="450.908936" cy="189.579361" fx="450.908936" fy="189.579361" r="21.166656" gradientTransform="matrix(-0.000000696682,0.31253,0.562554,0.000000406155,-47.11137,-32.756004)">
<stop offset="0" style="stop-color:rgb(0%,0%,0%);stop-opacity:0.313725;"/>
<stop offset="0.222222" style="stop-color:rgb(0%,0%,0%);stop-opacity:0.27451;"/>
<stop offset="1" style="stop-color:rgb(0%,0%,0%);stop-opacity:0;"/>
</radialGradient>
<radialGradient id="radial2" gradientUnits="userSpaceOnUse" cx="450.908936" cy="189.579361" fx="450.908936" fy="189.579361" r="21.166656" gradientTransform="matrix(-0.000000696682,-0.31253,0.562554,-0.000000406155,-47.11137,251.735245)">
<stop offset="0" style="stop-color:rgb(0%,0%,0%);stop-opacity:0.313725;"/>
<stop offset="0.222222" style="stop-color:rgb(0%,0%,0%);stop-opacity:0.27451;"/>
<stop offset="1" style="stop-color:rgb(0%,0%,0%);stop-opacity:0;"/>
</radialGradient>
<radialGradient id="radial3" gradientUnits="userSpaceOnUse" cx="450.908936" cy="189.579361" fx="450.908936" fy="189.579361" r="21.166656" gradientTransform="matrix(0.000000696682,0.31253,-0.562554,0.000000406155,163.539108,-32.756004)">
<stop offset="0" style="stop-color:rgb(0%,0%,0%);stop-opacity:0.313725;"/>
<stop offset="0.222222" style="stop-color:rgb(0%,0%,0%);stop-opacity:0.27451;"/>
<stop offset="1" style="stop-color:rgb(0%,0%,0%);stop-opacity:0;"/>
</radialGradient>
</defs>
<g id="surface1">
<path style="fill-rule:nonzero;fill:url(#linear0);stroke-width:3;stroke-linecap:square;stroke-linejoin:round;stroke:rgb(12.941177%,12.941177%,12.941177%);stroke-opacity:1;stroke-miterlimit:4;" d="M 248.710745 53.583746 C 245.304819 53.521252 241.961386 55.099227 239.852212 58.098942 L 188.263363 131.795065 C 185.997953 135.013509 185.779224 139.013129 187.325952 142.325314 C 188.903927 146.184323 192.684818 148.887191 197.121896 148.887191 L 266.521553 148.887191 L 226.619094 205.881776 C 223.260038 210.678195 224.416178 217.255695 229.212598 220.614751 C 234.02464 223.973807 240.60214 222.817667 243.961196 218.021248 L 294.456399 145.887476 C 296.440585 143.981407 297.659219 141.294162 297.659219 138.310071 C 297.659219 133.326169 294.268917 129.185938 289.659979 128.029798 C 288.410098 127.68608 287.097723 127.592339 285.832218 127.717327 L 216.948138 127.717327 L 257.194314 70.238413 C 260.55337 65.441994 259.39723 58.864494 254.60081 55.505438 C 252.788483 54.239933 250.741802 53.614993 248.710745 53.583746 Z M 248.710745 53.583746 " transform="matrix(0.250024,0,0,0.250024,0,53.755135)"/>
<path style=" stroke:none;fill-rule:nonzero;fill:url(#linear1);" d="M 87.320312 12.1875 C 75.6875 12.1875 65.6875 18.945312 61.023438 28.769531 C 59.28125 28.3125 57.453125 28.0625 55.566406 28.0625 C 46.511719 28.0625 38.820312 33.695312 35.785156 41.660156 C 33.171875 39.765625 29.953125 38.648438 26.460938 38.648438 C 17.664062 38.648438 10.585938 45.730469 10.585938 54.523438 C 10.585938 63.320312 17.664062 70.402344 26.460938 70.402344 C 27.113281 70.402344 27.757812 70.363281 28.390625 70.285156 C 28.617188 70.359375 28.859375 70.402344 29.109375 70.402344 L 87.320312 70.402344 C 87.320312 70.402344 87.324219 70.402344 87.328125 70.402344 C 103.449219 70.398438 116.429688 57.417969 116.429688 41.296875 C 116.429688 25.171875 103.445312 12.1875 87.320312 12.1875 Z M 87.320312 12.1875 "/>
<path style=" stroke:none;fill-rule:nonzero;fill:rgb(100%,100%,100%);fill-opacity:0.392157;" d="M 87.320312 12.1875 C 75.6875 12.1875 65.6875 18.945312 61.023438 28.769531 C 59.28125 28.3125 57.453125 28.0625 55.566406 28.0625 C 46.511719 28.0625 38.820312 33.695312 35.785156 41.660156 C 33.171875 39.765625 29.953125 38.648438 26.460938 38.648438 C 17.664062 38.648438 10.585938 45.730469 10.585938 54.523438 C 10.585938 54.746094 10.589844 54.96875 10.597656 55.1875 C 10.945312 46.703125 17.886719 39.972656 26.460938 39.972656 C 29.953125 39.972656 33.171875 41.085938 35.785156 42.984375 C 38.820312 35.015625 46.511719 29.386719 55.566406 29.386719 C 57.453125 29.386719 59.28125 29.632812 61.023438 30.09375 C 65.6875 20.269531 75.6875 13.511719 87.320312 13.511719 C 103.226562 13.511719 116.070312 26.140625 116.421875 41.957031 C 116.425781 41.734375 116.429688 41.515625 116.429688 41.296875 C 116.429688 25.171875 103.445312 12.1875 87.320312 12.1875 Z M 87.320312 12.1875 "/>
<path style=" stroke:none;fill-rule:nonzero;fill:rgb(0%,0%,0%);fill-opacity:0.235294;" d="M 116.421875 40.691406 C 116.101562 56.535156 103.246094 69.191406 87.328125 69.195312 C 87.324219 69.195312 87.320312 69.195312 87.320312 69.195312 L 29.109375 69.195312 C 28.859375 69.195312 28.617188 69.15625 28.390625 69.078125 C 27.757812 69.15625 27.113281 69.195312 26.460938 69.195312 C 17.867188 69.195312 10.914062 62.4375 10.597656 53.921875 C 10.589844 54.121094 10.585938 54.324219 10.585938 54.523438 C 10.585938 63.320312 17.664062 70.402344 26.460938 70.402344 C 27.113281 70.402344 27.757812 70.363281 28.390625 70.285156 C 28.617188 70.359375 28.859375 70.402344 29.109375 70.402344 L 87.320312 70.402344 C 87.320312 70.402344 87.324219 70.402344 87.328125 70.402344 C 103.449219 70.398438 116.429688 57.417969 116.429688 41.296875 C 116.429688 41.09375 116.425781 40.890625 116.421875 40.691406 Z M 116.421875 40.691406 "/>
<path style="fill:none;stroke-width:3;stroke-linecap:round;stroke-linejoin:miter;stroke:rgb(12.941177%,12.941177%,12.941177%);stroke-opacity:1;stroke-miterlimit:4;" d="M 349.248068 -166.254742 C 302.705615 -166.254742 262.725039 -139.210437 244.054937 -99.932919 C 237.102473 -101.76087 229.790668 -102.745152 222.24451 -102.745152 C 186.0292 -102.745152 155.266498 -80.231666 143.127027 -48.375317 C 132.674895 -55.952722 119.785494 -60.421048 105.833695 -60.421048 C 70.649538 -60.421048 42.324104 -32.095614 42.324104 3.088543 C 42.324104 38.257077 70.649538 66.582511 105.833695 66.582511 C 108.442822 66.582511 111.020702 66.426276 113.551711 66.113805 C 114.457875 66.410652 115.426533 66.582511 116.410815 66.582511 L 349.248068 66.582511 C 349.248068 66.582511 349.263692 66.582511 349.263692 66.582511 C 413.757564 66.566887 465.658883 14.649945 465.658883 -49.828304 C 465.658883 -114.322177 413.74194 -166.254742 349.248068 -166.254742 Z M 349.248068 -166.254742 " transform="matrix(0.250024,0,0,0.250024,0,53.755135)"/>
<path style=" stroke:none;fill-rule:nonzero;fill:url(#radial0);" d="M 58.214844 109.488281 L 68.796875 109.488281 L 68.796875 104.195312 L 58.214844 104.195312 Z M 58.214844 109.488281 "/>
<path style=" stroke:none;fill-rule:nonzero;fill:url(#radial1);" d="M 58.214844 109.488281 L 47.628906 109.488281 L 47.628906 114.78125 L 58.214844 114.78125 Z M 58.214844 109.488281 "/>
<path style=" stroke:none;fill-rule:nonzero;fill:url(#radial2);" d="M 58.214844 109.488281 L 47.628906 109.488281 L 47.628906 104.195312 L 58.214844 104.195312 Z M 58.214844 109.488281 "/>
<path style=" stroke:none;fill-rule:nonzero;fill:url(#radial3);" d="M 58.214844 109.488281 L 68.796875 109.488281 L 68.796875 114.78125 L 58.214844 114.78125 Z M 58.214844 109.488281 "/>
</g>
</svg>

<svg xmlns="http://www.w3.org/2000/svg" width="128" height="128"><defs><linearGradient id="a" gradientUnits="userSpaceOnUse" x1="232.833" y1="222.917" x2="232.833" y2="48.292"><stop offset="0" stop-color="#ffca28"/><stop offset="1" stop-color="#ffd54f"/></linearGradient><linearGradient id="b" gradientUnits="userSpaceOnUse" x1="960" y1="1695.118" x2="960" y2="815.118" gradientTransform="translate(0 -41.734) scale(.06615)"><stop offset="0" stop-color="#78909c"/><stop offset="1" stop-color="#90a4ae"/></linearGradient><radialGradient id="c" gradientUnits="userSpaceOnUse" cx="450.909" cy="189.579" fx="450.909" fy="189.579" r="21.167" gradientTransform="matrix(0 -.31253 -.56255 0 163.54 251.735)"><stop offset="0" stop-opacity=".314"/><stop offset=".222" stop-opacity=".275"/><stop offset="1" stop-opacity="0"/></radialGradient><radialGradient id="d" gradientUnits="userSpaceOnUse" cx="450.909" cy="189.579" fx="450.909" fy="189.579" r="21.167" gradientTransform="matrix(0 .31253 .56255 0 -47.111 -32.756)"><stop offset="0" stop-opacity=".314"/><stop offset=".222" stop-opacity=".275"/><stop offset="1" stop-opacity="0"/></radialGradient><radialGradient id="e" gradientUnits="userSpaceOnUse" cx="450.909" cy="189.579" fx="450.909" fy="189.579" r="21.167" gradientTransform="matrix(0 -.31253 .56255 0 -47.111 251.735)"><stop offset="0" stop-opacity=".314"/><stop offset=".222" stop-opacity=".275"/><stop offset="1" stop-opacity="0"/></radialGradient><radialGradient id="f" gradientUnits="userSpaceOnUse" cx="450.909" cy="189.579" fx="450.909" fy="189.579" r="21.167" gradientTransform="matrix(0 .31253 -.56255 0 163.54 -32.756)"><stop offset="0" stop-opacity=".314"/><stop offset=".222" stop-opacity=".275"/><stop offset="1" stop-opacity="0"/></radialGradient></defs><path d="M248.71 53.584a10.554 10.554 0 0 0-8.858 4.515l-51.589 73.696a10.5 10.5 0 0 0-.937 10.53 10.557 10.557 0 0 0 9.796 6.562h69.4l-39.903 56.995a10.56 10.56 0 0 0 2.594 14.733c4.812 3.359 11.39 2.203 14.748-2.594l50.495-72.134c1.985-1.906 3.203-4.593 3.203-7.577 0-4.984-3.39-9.124-7.999-10.28a10.583 10.583 0 0 0-3.828-.313h-68.884l40.246-57.479a10.56 10.56 0 0 0-2.593-14.733 10.537 10.537 0 0 0-5.89-1.921zm0 0" transform="matrix(.25002 0 0 .25002 0 53.755)" fill="url(#a)" stroke-width="3" stroke-linecap="square" stroke-linejoin="round" stroke="#212121"/><path d="M87.32 12.188A29.036 29.036 0 0 0 61.023 28.77a21.478 21.478 0 0 0-5.457-.707 21.124 21.124 0 0 0-19.78 13.597 15.822 15.822 0 0 0-9.325-3.012 15.84 15.84 0 0 0-15.875 15.875 15.84 15.84 0 0 0 15.875 15.88c.652 0 1.297-.04 1.93-.118.226.074.468.117.718.117h58.219c16.121-.004 29.102-12.984 29.102-29.105 0-16.125-12.985-29.11-29.11-29.11zm0 0" fill="url(#b)"/><path d="M87.32 12.188A29.036 29.036 0 0 0 61.023 28.77a21.478 21.478 0 0 0-5.457-.707 21.124 21.124 0 0 0-19.78 13.597 15.822 15.822 0 0 0-9.325-3.012 15.84 15.84 0 0 0-15.875 15.875c0 .223.004.446.012.664A15.843 15.843 0 0 1 26.46 39.974c3.492 0 6.71 1.113 9.324 3.011a21.119 21.119 0 0 1 19.781-13.597c1.887 0 3.715.246 5.457.707A29.036 29.036 0 0 1 87.32 13.512c15.907 0 28.75 12.629 29.102 28.445.004-.223.008-.441.008-.66 0-16.125-12.985-29.11-29.11-29.11zm0 0" fill="#fff" fill-opacity=".392"/><path d="M116.422 40.691c-.32 15.844-13.176 28.5-29.094 28.504H29.11a2.2 2.2 0 0 1-.72-.117c-.632.078-1.277.117-1.93.117a15.838 15.838 0 0 1-15.862-15.273 15.84 15.84 0 0 0 15.863 16.48c.652 0 1.297-.039 1.93-.117.226.074.468.117.718.117h58.219c16.121-.004 29.102-12.984 29.102-29.105 0-.203-.004-.406-.008-.606zm0 0" fill-opacity=".235"/><path d="M87.32 12.187a29.048 29.048 0 0 0-26.3 16.583 21.423 21.423 0 0 0-5.454-.704 21.12 21.12 0 0 0-19.78 13.594 15.83 15.83 0 0 0-9.325-3.012 15.844 15.844 0 0 0-15.879 15.88 15.843 15.843 0 0 0 15.879 15.874c.652 0 1.297-.039 1.93-.117.226.074.468.117.714.117h58.219c16.125-.004 29.102-12.984 29.102-29.105 0-16.125-12.98-29.11-29.106-29.11zm0 0" fill="none" stroke-width=".7500600000000001" stroke-linecap="round" stroke="#212121"/><path d="M58.215 109.488h10.582v-5.293H58.215zm0 0" fill="url(#c)"/><path d="M58.215 109.488H47.629v5.293h10.586zm0 0" fill="url(#d)"/><path d="M58.215 109.488H47.629v-5.293h10.586zm0 0" fill="url(#e)"/><path d="M58.215 109.488h10.582v5.293H58.215zm0 0" fill="url(#f)"/></svg>
